X: 1
T:Reel
M:C
L:1/8
Q:80
C:By D. McPhee
S:Reel
K:HP
|: A|
{Gdc}d2{g}f/2d3/2a3/2d/2{g}f/2d3/2|
{g}A/2{d}A3/2{g}c/2e3/2{a}g3/2e/2{g}c/2e3/2|
{Gdc}d2{g}f/2d3/2a3/2d/2{g}f/2d3/2|  !
{g}f/2a3/2g3/2e/2{g}f3/2d/2{c}d:| [|
e|
a3/2e/2{g}c/2e3/2{g}A3/2e/2{g}c/2e3/2|
a3/2e/2{g}c/2e3/2{g}d3/2B/2{G}B/2e3/2|  !
a3/2e/2{g}c/2e3/2{g}A3/2e/2{g}c/2e3/2|
{g}d/2f3/2{g}e3/2d/2{g}c3/2{d}A/2{e}A3/2e/2a3/2e/2{g}c/2e3/2{g}A3/2e/2{g
}c/2e3/2|
a3/2e/2{g}c/2e3/2{g}d3/2B/2{G}B/2e3/2|  !
a3/2g/2f3/2e/2{g}f3/2e/2{g}d3/2c/2|
{g}d3/2e/2{g}f3/2g/2a3/2e/2{A}e/2a3/2|]
